public/assets/icons/follow.svg

<svg width="20" height="20" viewBox="0 0 20 20" fill="none" xmlns="http://www.w3.org/2000/svg">
<path fill-rule="evenodd" clip-rule="evenodd" d="M10 1.0415C7.8139 1.0415 6.0417 2.81371 6.0417 4.99984C6.0417 7.18596 7.8139 8.95817 10 8.95817C12.1862 8.95817 13.9584 7.18596 13.9584 4.99984C13.9584 2.81371 12.1862 1.0415 10 1.0415ZM7.2917 4.99984C7.2917 3.50407 8.50426 2.2915 10 2.2915C11.4958 2.2915 12.7084 3.50407 12.7084 4.99984C12.7084 6.49561 11.4958 7.70817 10 7.70817C8.50426 7.70817 7.2917 6.49561 7.2917 4.99984Z" fill="#877EFF"/>
<path fill-rule="evenodd" clip-rule="evenodd" d="M10 10.2082C8.07207 10.2082 6.2958 10.6464 4.97957 11.3868C3.68293 12.1161 2.70836 13.2216 2.70836 14.5832L2.70831 14.6681C2.70737 15.6363 2.70619 16.8515 3.77204 17.7195C4.2966 18.1466 5.03043 18.4504 6.02187 18.6511C7.01608 18.8523 8.31189 18.9582 10 18.9582C11.6882 18.9582 12.984 18.8523 13.9782 18.6511C14.9696 18.4504 15.7035 18.1466 16.228 17.7195C17.2939 16.8515 17.2927 15.6363 17.2918 14.6681L17.2917 14.5832C17.2917 13.2216 16.3171 12.1161 15.0205 11.3868C13.7043 10.6464 11.928 10.2082 10 10.2082ZM3.95836 14.5832C3.95836 13.8737 4.47618 13.1041 5.5924 12.4763C6.68903 11.8594 8.24609 11.4582 10 11.4582C11.754 11.4582 13.311 11.8594 14.4077 12.4763C15.5239 13.1041 16.0417 13.8737 16.0417 14.5832C16.0417 15.673 16.0081 16.2865 15.4387 16.7502C15.1299 17.0016 14.6138 17.2471 13.7302 17.4259C12.8494 17.6042 11.6452 17.7082 10 17.7082C8.35484 17.7082 7.15065 17.6042 6.26986 17.4259C5.3863 17.2471 4.87013 17.0016 4.56135 16.7502C3.99196 16.2865 3.95836 15.673 3.95836 14.5832Z" fill="#877EFF"/>
</svg>

<svg width="20" height="20" viewBox="0 0 20 20" fill="none" xmlns="http://www.w3.org/2000/svg"><path fill-rule="evenodd" clip-rule="evenodd" d="M10 1.042a3.958 3.958 0 1 0 0 7.916 3.958 3.958 0 0 0 0-7.916M7.292 5a2.708 2.708 0 1 1 5.416 0 2.708 2.708 0 0 1-5.416 0M10 10.208c-1.928 0-3.704.438-5.02 1.179-1.297.73-2.272 1.835-2.272 3.196v.085c0 .968-.002 2.184 1.064 3.052.525.427 1.258.73 2.25.931.994.201 2.29.307 3.978.307s2.984-.106 3.978-.307c.992-.2 1.726-.504 2.25-.931 1.066-.868 1.065-2.084 1.064-3.052v-.085c0-1.361-.975-2.467-2.272-3.196-1.316-.74-3.092-1.179-5.02-1.179m-6.042 4.375c0-.71.518-1.479 1.634-2.107C6.69 11.86 8.246 11.458 10 11.458s3.311.401 4.408 1.018c1.116.628 1.634 1.398 1.634 2.107 0 1.09-.034 1.704-.603 2.167-.31.252-.825.497-1.709.676-.88.178-2.085.282-3.73.282s-2.85-.104-3.73-.282c-.884-.179-1.4-.424-1.709-.676-.569-.463-.603-1.077-.603-2.167" fill="#877EFF"/></svg>
